packages/ui-icons/svg/Line/instructure.svg

<svg viewBox="0 0 1920 1920" version="1.1" xmlns="http://www.w3.org/2000/svg">
    <path d="M960,1642.26415 C1098.86792,1642.26415 1213.58491,1744.90566 1231.69811,1883.77358 C1147.16981,1907.92453 1050.56604,1920 960,1920 C869.433962,1920 778.867925,1907.92453 688.301887,1883.77358 C700.377358,1744.90566 821.132075,1642.26415 960,1642.26415 Z M1436.98113,1436.98113 C1539.62264,1340.37736 1696.60377,1328.30189 1799.24528,1418.86792 C1708.67925,1575.84906 1575.84906,1708.67925 1412.83019,1805.28302 C1328.30189,1690.56604 1340.37736,1533.58491 1436.98113,1436.98113 Z M108.679245,1412.83019 C223.396226,1328.30189 380.377358,1340.37736 476.981132,1436.98113 C573.584906,1539.62264 585.660377,1696.60377 495.09434,1799.24528 C338.113208,1708.67925 205.283019,1575.84906 108.679245,1412.83019 Z M960,1394.71698 C1002.26415,1394.71698 1038.49057,1430.9434 1044.5283,1479.24528 C1044.5283,1527.54717 1008.30189,1569.81132 960,1569.81132 L960,1569.81132 L953.962264,1569.81132 C905.660377,1569.81132 869.433962,1527.54717 869.433962,1479.24528 C869.433962,1430.9434 911.698113,1394.71698 960,1394.71698 Z M1255.84906,1267.92453 C1292.07547,1237.73585 1340.37736,1237.73585 1370.56604,1267.92453 C1406.79245,1298.11321 1406.79245,1352.45283 1376.60377,1388.67925 C1376.60377,1394.40468 1371.17448,1394.70083 1370.61283,1394.71615 L1370.56604,1394.71698 C1334.33962,1424.90566 1280,1424.90566 1249.81132,1388.67925 C1219.62264,1352.45283 1219.62264,1298.11321 1255.84906,1267.92453 Z M531.320755,1261.88679 C561.509434,1231.69811 621.886792,1231.69811 652.075472,1261.88679 C688.301887,1292.07547 688.301887,1346.41509 652.075472,1382.64151 C621.886792,1418.86792 567.54717,1412.83019 531.320755,1382.64151 C495.09434,1352.45283 495.09434,1298.11321 531.320755,1261.88679 Z M36.2264151,688.301887 C175.09434,700.377358 277.735849,821.132075 277.735849,960 C277.735849,1098.86792 169.056604,1219.62264 36.2264151,1231.69811 C12.0754717,1141.13208 0,1050.56604 0,960 C0,869.433962 12.0754717,772.830189 36.2264151,688.301887 Z M1883.77358,688.301887 C1907.92453,772.830189 1920,869.433962 1920,960 C1920,1050.56604 1907.92453,1141.13208 1883.77358,1231.69811 C1750.9434,1219.62264 1642.26415,1098.86792 1642.26415,960 C1642.26415,821.132075 1744.90566,700.377358 1883.77358,688.301887 Z M440.754717,875.471698 C487.426415,875.471698 525.283019,913.328302 525.283019,960 C525.283019,1006.6717 487.426415,1044.5283 440.754717,1044.5283 C394.083019,1044.5283 356.226415,1006.6717 356.226415,960 C356.226415,913.328302 394.083019,875.471698 440.754717,875.471698 Z M1479.24528,869.433962 C1527.54717,869.433962 1563.77358,911.698113 1563.77358,953.962264 C1563.77358,1002.26415 1527.54717,1038.49057 1479.24528,1038.49057 C1430.9434,1038.49057 1394.71698,1002.26415 1394.71698,953.962264 C1394.71698,905.660377 1430.9434,869.433962 1479.24528,869.433962 Z M1267.92453,531.320755 C1298.11321,501.132075 1352.45283,501.132075 1382.64151,531.320755 C1418.86792,561.509434 1418.86792,615.849057 1388.67925,652.075472 C1352.45283,682.264151 1304.15094,682.264151 1273.96226,652.075472 C1237.73585,621.886792 1237.73585,567.54717 1267.92453,531.320755 Z M531.320755,525.283019 C561.509434,495.09434 615.849057,495.09434 652.075472,525.283019 C682.264151,555.471698 688.301887,609.811321 652.075472,646.037736 C621.886792,682.264151 567.54717,676.226415 531.320755,646.037736 C495.09434,615.849057 495.09434,561.509434 531.320755,525.283019 Z M1418.86792,114.716981 C1575.84906,205.283019 1708.67925,338.113208 1805.28302,501.132075 C1690.56604,585.660377 1533.58491,573.584906 1436.98113,476.981132 C1340.37736,380.377358 1328.30189,223.396226 1418.86792,114.716981 Z M501.132075,114.716981 C585.660377,223.396226 579.622642,380.377358 476.981132,476.981132 C380.377358,573.584906 223.396226,585.660377 114.716981,501.132075 C205.283019,338.113208 338.113208,205.283019 501.132075,114.716981 Z M960,356.226415 C1002.26415,356.226415 1044.5283,392.45283 1044.5283,434.716981 C1044.5283,483.018868 1008.30189,525.283019 960,525.283019 C911.698113,525.283019 875.471698,489.056604 875.471698,440.754717 C875.471698,392.45283 911.698113,356.226415 960,356.226415 Z M960,0 C1056.60377,0 1147.16981,12.0754717 1237.73585,36.2264151 C1219.62264,169.056604 1098.86792,277.735849 960,277.735849 C821.132075,277.735849 700.377358,175.09434 682.264151,36.2264151 C772.830189,12.0754717 863.396226,0 960,0 Z" stroke="none" stroke-width="1" fill-rule="evenodd"/>
</svg>

<svg viewBox="0 0 1920 1920" xmlns="http://www.w3.org/2000/svg">
    <path d="M960 1642.264c138.868 0 253.585 102.642 271.698 241.51C1147.17 1907.924 1050.566 1920 960 1920c-90.566 0-181.132-12.075-271.698-36.226 12.075-138.868 132.83-241.51 271.698-241.51Zm476.981-205.283c102.642-96.604 259.623-108.68 362.264-18.113-90.566 156.981-223.396 289.811-386.415 386.415-84.528-114.717-72.453-271.698 24.151-368.302Zm-1328.302-24.15c114.717-84.53 271.698-72.454 368.302 24.15 96.604 102.642 108.68 259.623 18.113 362.264-156.98-90.566-289.811-223.396-386.415-386.415ZM960 1394.716c42.264 0 78.49 36.226 84.528 84.528 0 48.302-36.226 90.566-84.528 90.566h-6.038c-48.302 0-84.528-42.264-84.528-90.566s42.264-84.528 90.566-84.528Zm295.85-126.792c36.225-30.19 84.527-30.19 114.716 0 36.226 30.188 36.226 84.528 6.038 120.754 0 5.726-5.43 6.022-5.991 6.037l-.047.001c-36.226 30.189-90.566 30.189-120.755-6.038-30.188-36.226-30.188-90.566 6.038-120.754Zm-724.53-6.038c30.19-30.189 90.567-30.189 120.755 0 36.227 30.188 36.227 84.528 0 120.755-30.188 36.226-84.528 30.188-120.754 0-36.227-30.19-36.227-84.529 0-120.755ZM36.227 688.302c138.868 12.075 241.51 132.83 241.51 271.698 0 138.868-108.68 259.623-241.51 271.698C12.076 1141.132 0 1050.566 0 960c0-90.566 12.075-187.17 36.226-271.698Zm1847.548 0C1907.924 772.83 1920 869.434 1920 960c0 90.566-12.075 181.132-36.226 271.698-132.83-12.075-241.51-132.83-241.51-271.698 0-138.868 102.642-259.623 241.51-271.698Zm-1443.02 187.17c46.672 0 84.529 37.856 84.529 84.528 0 46.672-37.857 84.528-84.528 84.528-46.672 0-84.529-37.856-84.529-84.528 0-46.672 37.857-84.528 84.529-84.528Zm1038.491-6.038c48.302 0 84.529 42.264 84.529 84.528 0 48.302-36.227 84.529-84.529 84.529s-84.528-36.227-84.528-84.529 36.226-84.528 84.528-84.528Zm-211.32-338.113c30.188-30.189 84.528-30.189 114.717 0 36.226 30.188 36.226 84.528 6.037 120.754-36.226 30.19-84.528 30.19-114.717 0-36.226-30.188-36.226-84.528-6.037-120.754Zm-736.604-6.038c30.188-30.189 84.528-30.189 120.754 0 30.19 30.189 36.227 84.528 0 120.755-30.188 36.226-84.528 30.188-120.754 0-36.227-30.189-36.227-84.529 0-120.755Zm887.547-410.566c156.981 90.566 289.811 223.396 386.415 386.415-114.717 84.528-271.698 72.453-368.302-24.15-96.604-96.605-108.68-253.586-18.113-362.265Zm-917.736 0c84.528 108.68 78.49 265.66-24.15 362.264-96.605 96.604-253.586 108.68-362.265 24.151 90.566-163.019 223.396-295.849 386.415-386.415ZM960 356.227c42.264 0 84.528 36.226 84.528 78.49 0 48.302-36.226 90.566-84.528 90.566-48.302 0-84.528-36.226-84.528-84.528 0-48.302 36.226-84.529 84.528-84.529ZM960 0c96.604 0 187.17 12.075 277.736 36.226-18.113 132.83-138.868 241.51-277.736 241.51S700.377 175.094 682.264 36.226C772.83 12.076 863.396 0 960 0Z" fill-rule="evenodd"/>
</svg>
